Adwaita++-Light/panel/16/btsync-gui-4.svg

<svg height="16" width="16" xmlns="http://www.w3.org/2000/svg">
  <path d="m11.5 1.9378221c-3.3478376-1.93287505-7.6293026-.7856599-9.5621778 2.5621779-1.93287502 3.3478376-.78566 7.629303 2.5621778 9.562178 3.3478378 1.932874 7.629304.78566 9.562178-2.562178 1.932875-3.3478378.78566-7.6293029-2.562178-9.5621779zm-1 1.7320509c2.094918 1.2095014 2.983854 3.7061532 2.243863 5.9142969l.952289.5498041-3.23205 1.598077-.232051-3.5980763.707028.4082026c.223626-1.2135804-.309339-2.4879983-1.4390788-3.1402536-.6185464-.3556667-1.3436071-.479229-2.0450417-.348509l-1.0344634-1.790288c1.3554613-.4537758 2.8403243-.3057278 4.0795049.4067463zm-4.9641016.5980761.2320509 3.5980762-.7070289-.4082028c-.2236266 1.2135804.3093403 2.4879981 1.4390797 3.1402545.6185453.355666 1.343607.479228 2.0450422.348509l1.0344631 1.790287c-1.3554617.453776-2.8403092.305701-4.0795053-.406746-2.0949189-1.209501-2.9838535-3.7061533-2.2438634-5.9142965l-.9522889-.5498051z" fill="#444"/>
</svg>

<svg xmlns="http://www.w3.org/2000/svg" width="16" height="16" version="1.1">
 <defs>
  <style id="current-color-scheme" type="text/css">
   .ColorScheme-Text { color:#444444; } .ColorScheme-Highlight { color:#4285f4; }
  </style>
 </defs>
 <path style="fill:currentColor" class="ColorScheme-Text" d="M 11.5,1.9378221 C 8.1521624,0.00494705 3.8706974,1.1521622 1.9378222,4.5 0.00494718,7.8478376 1.1521622,12.129303 4.5,14.062178 7.8478378,15.995052 12.129304,14.847838 14.062178,11.5 15.995053,8.1521622 14.847838,3.8706971 11.5,1.9378221 Z m -1,1.7320509 c 2.094918,1.2095014 2.983854,3.7061532 2.243863,5.9142969 l 0.952289,0.5498041 -3.23205,1.598077 -0.232051,-3.5980763 0.707028,0.4082026 C 11.162705,7.3285969 10.62974,6.054179 9.5000002,5.4019237 8.8814538,5.046257 8.1563931,4.9226947 7.4549585,5.0534147 L 6.4204951,3.2631267 C 7.7759564,2.8093509 9.2608194,2.9573989 10.5,3.669873 Z M 5.5358984,4.2679491 5.7679493,7.8660253 5.0609204,7.4578225 c -0.2236266,1.2135804 0.3093403,2.4879981 1.4390797,3.1402545 0.6185453,0.355666 1.343607,0.479228 2.0450422,0.348509 l 1.0344631,1.790287 C 8.2240437,13.190649 6.7391962,13.042574 5.5000001,12.330127 3.4050812,11.120626 2.5161466,8.6239737 3.2561367,6.4158305 L 2.3038478,5.8660254 5.5358984,4.2679491 Z"/>
</svg>
